app/[lang]/(home)/(new-home)/assets/aiagent-appicons/anthropic.svg

<svg width="32" height="32" viewBox="0 0 32 32" fill="none" xmlns="http://www.w3.org/2000/svg">
<g opacity="0.5" clip-path="url(#clip0_66_361)">
<path d="M0 16C0 20.2435 1.68571 24.3131 4.68629 27.3137C7.68687 30.3143 11.7565 32 16 32C20.2435 32 24.3131 30.3143 27.3137 27.3137C30.3143 24.3131 32 20.2435 32 16C32 11.7565 30.3143 7.68687 27.3137 4.68629C24.3131 1.68571 20.2435 0 16 0C11.7565 0 7.68687 1.68571 4.68629 4.68629C1.68571 7.68687 0 11.7565 0 16Z" fill="#EADBBE"/>
<path d="M20.4201 8.95117H17.3603L22.9402 23.0496H26L20.4201 8.95117ZM11.5799 8.95117L6 23.0497H9.12016L10.2612 20.089H16.0989L17.24 23.0497H20.3602L14.7803 8.95117H11.5799ZM11.2706 17.4706L13.1801 12.5159L15.0896 17.4706H11.2706Z" fill="#191919"/>
</g>
<defs>
<clipPath id="clip0_66_361">
<rect width="32" height="32" fill="white"/>
</clipPath>
</defs>
</svg>

<svg xmlns="http://www.w3.org/2000/svg" fill="none" viewBox="0 0 32 32">
  <g clip-path="url(#a)" opacity=".5">
    <path fill="#EADBBE" d="M0 16a16 16 0 1 0 32 0 16 16 0 0 0-32 0Z" />
    <path
      fill="#191919"
      d="M20.42 8.95h-3.06l5.58 14.1H26l-5.58-14.1Zm-8.84 0L6 23.05h3.12l1.14-2.96h5.84l1.14 2.96h3.12l-5.58-14.1h-3.2Zm-.3 8.52 1.9-4.95 1.91 4.95h-3.82Z"
    />
  </g>
  <defs>
    <clipPath id="a"><path fill="#fff" d="M0 0h32v32H0z" /></clipPath>
  </defs>
</svg>
